svgs/custom/charts_candle.svg

<svg width="50" height="50" viewBox="0 0 50 50" fill="none" xmlns="http://www.w3.org/2000/svg">
<path d="M15.627 34.0004H18.1349V37.4699C18.1349 37.7461 18.3587 37.9699 18.6349 37.9699H18.8888C19.165 37.9699 19.3888 37.7461 19.3888 37.4699V34.0004H21.8967C22.063 34.0004 22.2225 33.9343 22.34 33.8168C22.4576 33.6992 22.5237 33.5397 22.5237 33.3734V19.9888C22.5237 19.8225 22.4576 19.6631 22.34 19.5455C22.2225 19.4279 22.063 19.3618 21.8967 19.3618H19.3888V13.391C19.3888 13.1148 19.165 12.891 18.8888 12.891H18.6349C18.3587 12.891 18.1349 13.1148 18.1349 13.391V19.3618H15.627C15.4607 19.3618 15.3012 19.4279 15.1836 19.5455C15.0661 19.6631 15 19.8225 15 19.9888V33.3734C15 33.5397 15.0661 33.6992 15.1836 33.8168C15.3012 33.9343 15.4607 34.0004 15.627 34.0004Z" fill="#00D09C"/>
<path d="M26.5441 30.2748H29.052V34.3436V36.2457C29.052 36.5218 29.2759 36.7457 29.552 36.7457H29.8059C30.0821 36.7457 30.3059 36.5218 30.3059 36.2457V30.2748H32.8138C32.9801 30.2748 33.1396 30.2088 33.2572 30.0912C33.3748 29.9736 33.4408 29.8141 33.4408 29.6478V15.4286C33.4408 15.2623 33.3748 15.1028 33.2572 14.9852C33.1396 14.8677 32.9801 14.8016 32.8138 14.8016H30.3059V12.1667C30.3059 11.8906 30.0821 11.6667 29.8059 11.6667H29.552C29.2759 11.6667 29.052 11.8906 29.052 12.1667V14.8016H26.5441C26.3778 14.8016 26.2183 14.8677 26.1008 14.9852C25.9832 15.1028 25.9171 15.2623 25.9171 15.4286V29.6478C25.9171 29.8141 25.9832 29.9736 26.1008 30.0912C26.2183 30.2088 26.3778 30.2748 26.5441 30.2748Z" fill="#00D09C"/>
</svg>

<svg width="50" height="50" fill="none" xmlns="http://www.w3.org/2000/svg"><path d="M15.627 34h2.508v3.47a.5.5 0 0 0 .5.5h.254a.5.5 0 0 0 .5-.5V34h2.508a.627.627 0 0 0 .627-.627V19.99a.627.627 0 0 0-.627-.627h-2.508V13.39a.5.5 0 0 0-.5-.5h-.254a.5.5 0 0 0-.5.5v5.97h-2.508a.627.627 0 0 0-.627.628v13.384a.627.627 0 0 0 .627.627Zm10.917-3.725h2.508v5.971a.5.5 0 0 0 .5.5h.254a.5.5 0 0 0 .5-.5v-5.971h2.508a.627.627 0 0 0 .627-.627v-14.22a.627.627 0 0 0-.627-.626h-2.508v-2.635a.5.5 0 0 0-.5-.5h-.254a.5.5 0 0 0-.5.5v2.635h-2.508a.627.627 0 0 0-.627.627v14.219a.627.627 0 0 0 .627.627Z" fill="currentColor"/></svg>
